X:1007
T:Graham of Orchall's Do.
M:C|
L:1/8
Q:1/4=132
I: :: ::
Z:Jack Campin * www.campin.me.uk * 2009
K:G
g|d>Gd>B d>GB>g|d>Gd>B      ({B}A2)A<g|d>Gd>B g>ab>a|g>ed>B    A2A:|
d|g>ab>a g>dBG |g/f/g/a/ gd ({d}e2)e>f|g>ab>g a>bgd |e>g{e}d>B A2A:|

